file-find-outline.svg

<svg fill="currentColor" viewBox="0 0 24 24"><path d="M14 2H6a2 2 0 0 0-2 2v16a2 2 0 0 0 2 2h12a2 2 0 0 0 2-2V8zM6 4h7l5 5v8.58l-1.84-1.84a4.97 4.97 0 0 0-.66-6.28A4.92 4.92 0 0 0 12 8c-1.28 0-2.55.5-3.53 1.46-1.97 1.95-1.97 5.11 0 7.04.97 1 2.25 1.47 3.53 1.47.96 0 1.92-.28 2.75-.83L17.6 20H6zm8.11 11.1c-.56.56-1.31.9-2.11.9s-1.55-.33-2.11-.9C9.33 14.54 9 13.79 9 13c0-.81.32-1.56.89-2.12.56-.57 1.31-.88 2.11-.88s1.55.31 2.11.88c.56.56.89 1.31.89 2.12 0 .79-.32 1.54-.89 2.1"/></svg>

<svg  viewBox="0 0 24 24" fill="currentColor"><path  d="M14,2H6A2,2 0 0,0 4,4V20A2,2 0 0,0 6,22H18A2,2 0 0,0 20,20V8L14,2M6,4H13L18,9V17.58L16.16,15.74C17.44,13.8 17.23,11.17 15.5,9.46C14.55,8.5 13.28,8 12,8C10.72,8 9.45,8.5 8.47,9.46C6.5,11.41 6.5,14.57 8.47,16.5C9.44,17.5 10.72,17.97 12,17.97C12.96,17.97 13.92,17.69 14.75,17.14L17.6,20H6V4M14.11,15.1C13.55,15.66 12.8,16 12,16C11.2,16 10.45,15.67 9.89,15.1C9.33,14.54 9,13.79 9,13C9,12.19 9.32,11.44 9.89,10.88C10.45,10.31 11.2,10 12,10C12.8,10 13.55,10.31 14.11,10.88C14.67,11.44 15,12.19 15,13C15,13.79 14.68,14.54 14.11,15.1Z"/></svg>
